X: 1
T: Sweet Chiming Christmas Bells (While Shepherds Watched)
S: http://lesters-tune-a-day.blogspot.co.uk/2015/12/tune-438-sweet-chiming-christmas-bells.html
N: A Sheffield version of While Shepherds Watch Their Flocks by Night.
M: 4/4
L: 1/8
K: G
   GA | B2 G2 d2 B2 | B2 A2 A2 AB | c2 A2 d2 [1 c2 | B6 :|2 A2 | G6 ||
|: d2 | d6       d2 | c2 d2 B2 c2 | A6 :|
|: GA | B2 d2 c2 e2 | d2 g2 e2 c2 | B4 A4 | G6 :|
